X: 09
T: MENSTRIE BURN
C: Andrew Rankine
R: reel
B: "The Complete Andrew Rankine Collection of Scottish Country Dance Tunes" p.12
Z: 2017 John Chambers <jc:trillian.mit.edu>
M: C
L: 1/8
K: D
A2 |\
"D"D2FA d2cd | "E7"edcB "A7"A2de | "D"f2ef "Em"gfed | "A7"cdec AGFE |
"D"D2FA d2cd | "E7"edcB "A7"A2de | "D"f2ef "A7"gecA | "D"d2d2 d2 :|
|: e2 |\
"D"f2df a2ba | "Em"gfed "A"e2c2 | "G"d2Bc "E7"d2ed | "A7"cBA^G A=GFE |
"D"D2FA d2cd | "E7"edcB "A7"A2de | "D"f2ef "A7"gecA | "D"d2d2 d2 :|

%%sep 1 1 500

